X: 4393
T: "SULTAN" POLKA
C: d'Albert.
R: Polka
%R: polka, march
B: James Kerr "Merry Melodies" v.4 p.43 #393
Z: 2016 John Chambers <jc:trillian.mit.edu>
N: There's probably a missing "D.C." at the very end.
M: 2/4
L: 1/8
K: D
|:\
f2f>e | edd2 | effa | agg2 |\
g2g>f | fee2 | dcBc | edd2 ::\
fcfc | f(c/d/) cc | d(B/c/) BB |
[1 cFFz :|[2 cAA"_D.C."z |] [K:=c]\
[K:G] |: "Trio"\
D2G>A | B3B | ccEc | B3B | ddAA |\
BBGG |[1 AAEE | GFE_E :|[2 AAEF | Gz [gB]z |] [K:D]

%%sep 1 1 500
%%sep 1 1 500

